icons/communication/message-alert-alt-24.svg

<svg width="24" height="24" viewBox="0 0 24 24" fill="none" xmlns="http://www.w3.org/2000/svg">
<path d="M19 21C19.5523 21 20 21.4477 20 22C20 22.5523 19.5523 23 19 23C18.4477 23 18 22.5523 18 22C18 21.4477 18.4477 21 19 21Z" fill="black"/>
<path d="M19.5303 13.2197C19.3897 13.079 19.1989 13 19 13C18.8011 13 18.6103 13.079 18.4697 13.2197C18.329 13.3603 18.25 13.5511 18.25 13.75V18.75C18.25 18.9489 18.329 19.1397 18.4697 19.2803C18.6103 19.421 18.8011 19.5 19 19.5C19.1989 19.5 19.3897 19.421 19.5303 19.2803C19.671 19.1397 19.75 18.9489 19.75 18.75V13.75C19.75 13.5511 19.671 13.3603 19.5303 13.2197Z" fill="black"/>
<path d="M19.7071 22.7071C19.5196 22.8946 19.2652 23 19 23C18.7348 23 18.4804 22.8946 18.2929 22.7071C18.1054 22.5196 18 22.2652 18 22C18 21.7348 18.1054 21.4804 18.2929 21.2929C18.4804 21.1054 18.7348 21 19 21C19.2652 21 19.5196 21.1054 19.7071 21.2929C19.8946 21.4804 20 21.7348 20 22C20 22.2652 19.8946 22.5196 19.7071 22.7071Z" fill="black"/>
<path d="M12.5 3.5C8.08173 3.5 4.50001 7.08172 4.50001 11.5C4.50001 12.7385 4.78091 13.9092 5.28177 14.9539C5.39825 15.1969 5.37227 15.4713 5.23708 15.6828L3.80161 19.0948L8.34898 18.5132C8.48487 18.4958 8.61691 18.516 8.73469 18.5656C8.75906 18.5752 8.78317 18.5862 8.80691 18.5986C9.1186 18.7611 9.44235 18.9037 9.77652 19.0247C10.1745 19.1687 10.4178 19.5893 10.2991 19.9955C10.1855 20.3839 9.78254 20.6145 9.40009 20.4825C9.02686 20.3537 8.6641 20.2023 8.3135 20.03L3.13105 20.6928C2.36666 20.7906 1.7836 20.0234 2.08244 19.3131L3.78057 15.2767C3.27821 14.1184 3.00001 12.8408 3.00001 11.5C3.00001 6.25329 7.2533 2 12.5 2C17.4943 2 21.5885 5.85392 21.9708 10.7501C22.0031 11.163 21.6642 11.5 21.25 11.5C20.8358 11.5 20.5037 11.1631 20.4654 10.7507C20.0876 6.68377 16.6656 3.5 12.5 3.5Z" fill="black"/>
</svg>

<svg xmlns="http://www.w3.org/2000/svg" width="24" height="24"><path d="M19 21a1 1 0 110 2 1 1 0 010-2zm.53-7.78a.75.75 0 00-1.28.53v5a.75.75 0 101.5 0v-5a.75.75 0 00-.22-.53z"/><path d="M19.707 22.707a1 1 0 11-1.414-1.414 1 1 0 011.414 1.414zM12.5 3.5a8 8 0 00-7.218 11.454.75.75 0 01-.045.729l-1.435 3.412 4.547-.582a.746.746 0 01.458.086c.312.162.635.305.97.426.398.144.64.564.522.97-.114.389-.516.62-.899.488a9.461 9.461 0 01-1.087-.453l-5.182.663a1 1 0 01-1.049-1.38l1.699-4.036A9.5 9.5 0 0112.5 2c4.993 0 9.087 3.854 9.47 8.75.032.413-.307.75-.721.75s-.746-.337-.785-.75A8 8 0 0012.5 3.5z"/></svg>
